src/icons/svgs/24/triangle-exclamation.svg

<svg width="24" height="24" viewBox="0 0 24 24" fill="none" xmlns="http://www.w3.org/2000/svg">
<path d="M21.7769 18.4688L13.4512 3.84375C13.1311 3.28125 12.569 3 12.007 3C11.4449 3 10.8828 3.28125 10.5276 3.84375L2.2058 18.4688C1.60119 19.5897 2.39906 21 3.68281 21H20.3342C21.6129 21 22.4131 19.5938 21.7769 18.4688ZM4.06689 19.0714L11.9718 5.12143L19.9462 19.0714H4.06689ZM12.007 15.2585C11.3293 15.2585 10.7798 15.8242 10.7798 16.5217C10.7798 17.2192 11.3305 17.7849 12.0085 17.7849C12.6865 17.7849 13.2341 17.2192 13.2341 16.5217C13.2326 15.825 12.6861 15.2585 12.007 15.2585ZM11.0702 9.10714V12.9643C11.0702 13.4987 11.4917 13.9286 12.007 13.9286C12.5222 13.9286 12.9437 13.4967 12.9437 12.9643V9.10714C12.9437 8.57679 12.5261 8.14286 12.007 8.14286C11.4878 8.14286 11.0702 8.57679 11.0702 9.10714Z" fill="black"/>
</svg>

<svg width="24" height="24" viewBox="0 0 24 24" xmlns="http://www.w3.org/2000/svg">
    <path d="M21.777 18.469 13.45 3.844A1.647 1.647 0 0 0 12.007 3c-.562 0-1.124.281-1.48.844l-8.32 14.625C1.6 19.589 2.399 21 3.683 21h16.651c1.279 0 2.08-1.406 1.443-2.531zm-17.71.602 7.905-13.95 7.974 13.95H4.066zm7.94-3.813c-.678 0-1.227.566-1.227 1.264 0 .697.55 1.263 1.229 1.263.678 0 1.225-.566 1.225-1.263-.001-.697-.548-1.263-1.227-1.263zm-.937-6.15v3.856c0 .535.422.965.937.965.515 0 .937-.432.937-.965V9.107c0-.53-.418-.964-.937-.964-.52 0-.937.434-.937.964z"/>
</svg>
